<?xml version="1.0" encoding="UTF-8"?>
<map version="1.10" tiledversion="1.12.2" orientation="orthogonal" renderorder="right-down" width="64" height="64" tilewidth="32" tileheight="32" infinite="0" nextlayerid="18" nextobjectid="164">
 <properties>
  <property name="include" value="Map:Common"/>
 </properties>
 <imagelayer id="2" name="Map" locked="1">
  <image source="Images/Map_Indoors.png" width="2048" height="2048"/>
  <properties>
   <property name="include" value="Map:Common"/>
  </properties>
 </imagelayer>
 <objectgroup id="15" name="secretplaces">
  <object id="99" name="Secret Area Super Stage" x="291.5" y="1297" width="22" height="18">
   <properties>
    <property name="border" type="color" value="#ffffffff"/>
    <property name="fill" type="color" value="#ffff8000"/>
   </properties>
  </object>
  <object id="100" name="Secret Area Farm" x="1188.13" y="1370.38" width="42.75" height="29.75">
   <properties>
    <property name="border" type="color" value="#ffffffff"/>
    <property name="fill" type="color" value="#ffff8000"/>
   </properties>
  </object>
  <object id="101" name="Secret Area Armory" x="1513.45" y="1187.27" width="22.1818" height="18.5455">
   <properties>
    <property name="border" type="color" value="#ffffffff"/>
    <property name="fill" type="color" value="#ffff8000"/>
   </properties>
  </object>
  <object id="102" name="Secret Area Lighthouse" x="1925.45" y="1435.27" width="10.5455" height="11.2727">
   <properties>
    <property name="border" type="color" value="#ffffffff"/>
    <property name="fill" type="color" value="#ffff8000"/>
   </properties>
  </object>
  <object id="103" name="Secret Area Laboratorium" x="668.364" y="755.091" width="24" height="21.0909">
   <properties>
    <property name="border" type="color" value="#ffffffff"/>
    <property name="fill" type="color" value="#ffff8000"/>
   </properties>
  </object>
 </objectgroup>
 <objectgroup id="16" name="bananaltar">
  <object id="104" x="487" y="1669.5">
   <point/>
  </object>
  <object id="105" x="140" y="1435.5">
   <point/>
  </object>
  <object id="106" x="276.75" y="1210.75">
   <point/>
  </object>
  <object id="107" x="897.25" y="1676">
   <point/>
  </object>
  <object id="108" x="1040.5" y="1519.5">
   <point/>
  </object>
  <object id="109" x="871.75" y="1357.25">
   <point/>
  </object>
  <object id="110" x="847" y="1062.75">
   <point/>
  </object>
  <object id="111" x="485" y="942.5">
   <point/>
  </object>
  <object id="112" x="387" y="739.75">
   <point/>
  </object>
  <object id="113" x="346.75" y="411">
   <point/>
  </object>
  <object id="114" x="591.75" y="268">
   <point/>
  </object>
  <object id="115" x="1262.25" y="255">
   <point/>
  </object>
  <object id="116" x="1677.5" y="300.75">
   <point/>
  </object>
  <object id="117" x="1338.5" y="796.5">
   <point/>
  </object>
  <object id="118" x="1749.5" y="734.5">
   <point/>
  </object>
  <object id="119" x="1573" y="1345">
   <point/>
  </object>
  <object id="120" x="1773" y="1669.5">
   <point/>
  </object>
  <object id="121" x="1535" y="1922">
   <point/>
  </object>
  <object id="122" x="1326" y="1604">
   <point/>
  </object>
  <object id="123" x="1075.5" y="937">
   <point/>
  </object>
  <object id="124" x="1522" y="1063.5">
   <point/>
  </object>
  <object id="125" x="1332.67" y="1261.33">
   <point/>
  </object>
  <object id="126" name="The Banana Altar" x="1724.33" y="388">
   <properties>
    <property name="description" value="Main Banana Altar"/>
   </properties>
   <point/>
  </object>
  <object id="127" x="924.182" y="635.273">
   <point/>
  </object>
  <object id="128" x="734.909" y="494.182">
   <point/>
  </object>
  <object id="129" x="1207.09" y="556.909">
   <point/>
  </object>
 </objectgroup>
 <objectgroup id="14" name="campfire">
  <object id="46" x="312" y="1147">
   <point/>
  </object>
  <object id="47" x="409.333" y="1198">
   <point/>
  </object>
  <object id="48" x="176.83" y="1092.3">
   <point/>
  </object>
  <object id="49" x="266" y="919">
   <point/>
  </object>
  <object id="50" x="545.5" y="877.5">
   <point/>
  </object>
  <object id="51" x="749.5" y="909">
   <point/>
  </object>
  <object id="52" x="282" y="687">
   <point/>
  </object>
  <object id="53" x="583.5" y="600">
   <point/>
  </object>
  <object id="54" x="396" y="531.5">
   <point/>
  </object>
  <object id="55" x="253.5" y="357">
   <point/>
  </object>
  <object id="56" x="391.5" y="185.5">
   <point/>
  </object>
  <object id="57" x="745.5" y="419.5">
   <point/>
  </object>
  <object id="58" x="678" y="270">
   <point/>
  </object>
  <object id="59" x="1146.83" y="295.333">
   <point/>
  </object>
  <object id="60" x="1312.5" y="356">
   <point/>
  </object>
  <object id="61" x="1458.5" y="211.5">
   <point/>
  </object>
  <object id="62" x="1815.5" y="392">
   <point/>
  </object>
  <object id="63" x="1744" y="669.5">
   <point/>
  </object>
  <object id="64" x="1419" y="567.16">
   <point/>
  </object>
  <object id="65" x="1227.5" y="519.5">
   <point/>
  </object>
  <object id="66" x="1486" y="709.5">
   <point/>
  </object>
  <object id="67" x="1855" y="895">
   <point/>
  </object>
  <object id="68" x="1607.5" y="931.5">
   <point/>
  </object>
  <object id="69" x="1608" y="1099">
   <point/>
  </object>
  <object id="70" x="1799" y="1372.5">
   <point/>
  </object>
  <object id="71" x="1698.5" y="1493.5">
   <point/>
  </object>
  <object id="72" x="1768" y="1951.5">
   <point/>
  </object>
  <object id="73" x="1404" y="1789.25">
   <point/>
  </object>
  <object id="74" x="1540" y="1906.36">
   <point/>
  </object>
  <object id="75" x="1210.67" y="1796">
   <point/>
  </object>
  <object id="76" x="879" y="1851.67">
   <point/>
  </object>
  <object id="77" x="834.333" y="1591">
   <point/>
  </object>
  <object id="78" x="844" y="1389.33">
   <point/>
  </object>
  <object id="79" x="888" y="1724.66">
   <point/>
  </object>
  <object id="80" x="588.667" y="1734">
   <point/>
  </object>
  <object id="81" x="584" y="1537.5">
   <point/>
  </object>
  <object id="82" x="488" y="1380.5">
   <point/>
  </object>
  <object id="83" x="209" y="1452.5">
   <point/>
  </object>
  <object id="84" x="342" y="1732">
   <point/>
  </object>
  <object id="85" x="584" y="1127">
   <point/>
  </object>
  <object id="86" x="458.5" y="1044">
   <point/>
  </object>
  <object id="87" x="725.5" y="1040">
   <point/>
  </object>
  <object id="88" x="873.5" y="1188">
   <point/>
  </object>
  <object id="89" x="1003.5" y="1273">
   <point/>
  </object>
  <object id="90" x="1012.5" y="920">
   <point/>
  </object>
  <object id="91" x="917.5" y="581">
   <point/>
  </object>
  <object id="92" x="759" y="735.5">
   <point/>
  </object>
  <object id="93" x="1236.5" y="962.5">
   <point/>
  </object>
  <object id="94" x="1327" y="1119.5">
   <point/>
  </object>
  <object id="95" x="1417.64" y="1337.82">
   <point/>
  </object>
  <object id="96" x="1115.33" y="1496.67">
   <point/>
  </object>
  <object id="97" x="1410" y="1597.33">
   <point/>
  </object>
  <object id="98" x="1758.67" y="1609">
   <point/>
  </object>
 </objectgroup>
 <objectgroup id="17" name="redirect-link">
  <object id="137" name="Beaver Construction HQ" x="641" y="1200">
   <properties>
    <property name="page" value="Beaver Construction HQ"/>
   </properties>
   <point/>
  </object>
  <object id="138" name="S.A.W. Villas" x="811.5" y="1285.5">
   <properties>
    <property name="page" value="S.A.W. Villas"/>
   </properties>
   <point/>
  </object>
  <object id="139" name="Museum of Super Natural History" x="212.5" y="1044">
   <properties>
    <property name="page" value="Museum of Super Natural History"/>
   </properties>
   <point/>
  </object>
  <object id="140" name="Super Sea Land" x="1829" y="1805">
   <properties>
    <property name="page" value="Super Sea Land"/>
   </properties>
   <point/>
  </object>
  <object id="141" name="Pixile Port" x="1808" y="1152">
   <properties>
    <property name="page" value="Pixile Port"/>
   </properties>
   <point/>
  </object>
  <object id="142" name="S.A.W. Security HQ" x="1523" y="1205">
   <properties>
    <property name="page" value="S.A.W. Security HQ"/>
   </properties>
   <point/>
  </object>
  <object id="143" name="S.A.W. Bamboo Resort" x="1146" y="1112">
   <properties>
    <property name="page" value="S.A.W. Bamboo Resort"/>
   </properties>
   <point/>
  </object>
  <object id="144" name="S.A.W. Research Labs" x="1223" y="689">
   <properties>
    <property name="page" value="S.A.W. Research Labs"/>
   </properties>
   <point/>
  </object>
  <object id="145" name="Health Juice Factory" x="1514.84" y="791.834">
   <properties>
    <property name="page" value="Health Juice Factory"/>
   </properties>
   <point/>
  </object>
  <object id="146" name="Thomas's Workshop" x="1430" y="375.125">
   <properties>
    <property name="page" value="Thomas's Workshop"/>
   </properties>
   <point/>
  </object>
  <object id="147" name="Super Penguin Palace" x="965.667" y="330">
   <properties>
    <property name="page" value="Super Penguin Palace"/>
   </properties>
   <point/>
  </object>
  <object id="148" name="Superite Mountain" x="607.333" y="591.333">
   <properties>
    <property name="page" value="Superite Mountain"/>
   </properties>
   <point/>
  </object>
  <object id="149" name="Super Pyramid" x="624.667" y="800.667">
   <properties>
    <property name="page" value="Super Pyramid"/>
   </properties>
   <point/>
  </object>
  <object id="150" name="Giant Eagle Landing" x="565.625" y="1434.63">
   <properties>
    <property name="page" value="Giant Eagle Landing"/>
   </properties>
   <point/>
  </object>
  <object id="151" name="Super Animal Super Stage" x="355" y="1375">
   <properties>
    <property name="page" value="Super Animal Super Stage"/>
   </properties>
   <point/>
  </object>
  <object id="152" name="S.A.W. Welcome Center" x="327.5" y="1716">
   <properties>
    <property name="page" value="S.A.W. Welcome Center"/>
   </properties>
   <point/>
  </object>
  <object id="153" name="Crocodile Club" x="775.5" y="1625">
   <properties>
    <property name="page" value="Crocodile Club"/>
   </properties>
   <point/>
  </object>
  <object id="154" name="Super Animal Farm" x="1220" y="1448.5">
   <properties>
    <property name="page" value="Super Animal Farm"/>
   </properties>
   <point/>
  </object>
  <object id="155" name="Giant Emu Ranch" x="831" y="907">
   <properties>
    <property name="page" value="Giant Emu Ranch"/>
   </properties>
   <point/>
  </object>
  <object id="156" name="Mini Ranch" x="1429" y="1379.64">
   <properties>
    <property name="page" value="Mini Ranch"/>
   </properties>
   <point/>
  </object>
  <object id="157" name="Hamsterball Stadium" x="723.5" y="1818">
   <properties>
    <property name="page" value="Hamsterball Stadium"/>
   </properties>
   <point/>
  </object>
  <object id="158" name="Victory Island" x="986" y="1942.5">
   <properties>
    <property name="page" value="Victory Island"/>
   </properties>
   <point/>
  </object>
 </objectgroup>
 <objectgroup id="4" name="rat">
  <object id="6" name="Rat" x="633.909" y="628.887">
   <point/>
  </object>
 </objectgroup>
 <objectgroup id="10" name="firstskullcat">
  <object id="5" name="First Skullcat" x="564.364" y="891.455">
   <properties>
    <property name="description" value="First skullcat"/>
   </properties>
   <point/>
  </object>
 </objectgroup>
 <objectgroup id="8" name="places">
  <object id="8" name="Super Sea Land" x="1672" y="1654" width="314" height="302"/>
  <object id="9" name="Pixile Port" x="1652" y="944" width="312" height="416"/>
  <object id="10" name="S.A.W. Security HQ" x="1420" y="1114" width="206" height="182"/>
  <object id="11" name="S.A.W. Bamboo Resort" x="1024" y="944" width="244" height="336"/>
  <object id="12" name="S.A.W. Research Lab" x="1052" y="588" width="342" height="202"/>
  <object id="14" name="Health Juice Factory" x="1463.67" y="729.667">
   <polygon points="0,0 0,73 -59.3333,71 -61,122 163.667,124.333 163.667,41.3333 96.3333,40.6667 96,3.66667"/>
  </object>
  <object id="16" name="Thomas's Workshop" x="1386.75" y="350.25" width="86.5" height="49.75"/>
  <object id="17" name="Super Penguin Palace" x="809.333" y="185.333" width="312.667" height="289.333"/>
  <object id="18" name="Superite Mountain" x="422.667" y="498" width="369.333" height="186.667"/>
  <object id="19" name="Super Pyramid" x="546.667" y="738" width="156" height="125.333"/>
  <object id="21" name="Giant Eagle Landing" x="462.5" y="1391.75" width="206.25" height="85.75"/>
  <object id="22" name="S.A.W. Welcome Center" x="120" y="1510" width="415" height="412"/>
  <object id="23" name="Crocodile Club" x="730" y="1586" width="91" height="78"/>
  <object id="24" name="Super Animal Farm" x="1072" y="1335" width="296" height="227"/>
  <object id="26" name="Giant Emu Ranch" x="757" y="860" width="148" height="94"/>
  <object id="27" name="Mini Ranch" x="1369.82" y="1352.55" width="118.364" height="54.1818"/>
  <object id="29" name="Hamster Ball Stadium" x="580" y="1704" width="287" height="228"/>
  <object id="31" name="Victory Island" x="1240" y="1844">
   <polygon points="0,0 -318,-1 -322,98 -513,103 -517,194 9,197"/>
  </object>
  <object id="136" name="Museum of Super Natural History" x="135" y="998" width="155" height="92"/>
  <object id="159" name="Super Animal Super Stage" x="249" y="1275" width="210" height="200"/>
  <object id="161" name="Beaver Construction HQ" x="500" y="1145">
   <properties>
    <property name="thickness" type="int" value="3"/>
   </properties>
   <polygon points="0,0 0,85 43,150 248,150 248,59 278,59 278,25 208,25 208,-40 126,-40 126,0"/>
  </object>
  <object id="162" name="S.A.W. Villas" x="765" y="1220" width="93" height="131"/>
 </objectgroup>
 <objectgroup id="9" name="dogna">
  <object id="2" name="Dogna" x="676.917" y="752.667">
   <properties>
    <property name="description" value="Dr. Dogna is inside the secret lab inside the pyramid"/>
    <property name="page" value="Dr. Dogna"/>
   </properties>
   <point/>
  </object>
 </objectgroup>
 <objectgroup id="11" name="respawntank">
  <object id="32" x="443.125" y="1722.63">
   <point/>
  </object>
  <object id="33" x="162.909" y="1236">
   <point/>
  </object>
  <object id="34" x="376.667" y="794.333">
   <point/>
  </object>
  <object id="35" x="722.667" y="419.333">
   <point/>
  </object>
  <object id="36" x="1330.67" y="397.667">
   <point/>
  </object>
  <object id="37" x="1641.33" y="575.667">
   <point/>
  </object>
  <object id="38" x="1716" y="1055">
   <point/>
  </object>
  <object id="39" x="1336.67" y="1544">
   <point/>
  </object>
  <object id="40" x="1792" y="1739.33">
   <point/>
  </object>
  <object id="41" x="1363.33" y="1118.67">
   <point/>
  </object>
  <object id="42" x="989.333" y="951.333">
   <point/>
  </object>
  <object id="43" x="1303" y="722">
   <point/>
  </object>
  <object id="44" x="669" y="1418.33">
   <point/>
  </object>
 </objectgroup>
</map>
